newicons/emoji_video_camera.svg

<?xml version="1.0" encoding="UTF-8" standalone="no"?>
<svg
   version="1.2"
   viewBox="0 0 48 48"
   id="svg8"
   xmlns="http://www.w3.org/2000/svg"
   xmlns:svg="http://www.w3.org/2000/svg">
  <defs
     id="defs1" />
  <path
     d="M 27.762596,37.294492 H 14.244751 V 21.534919 h 13.517845 c 1.2039,0 2.179794,0.976224 2.179794,2.180532 v 11.39851 c 0,1.204307 -0.975894,2.180531 -2.179794,2.180531"
     fill="none"
     stroke="#ffffff"
     stroke-linecap="round"
     stroke-linejoin="round"
     stroke-width="1"
     id="path1"
     style="stroke-width:1;stroke-dasharray:none" />
  <path
     d="M 8.1342816,28.154212 V 40.184495 H 33.790235 V 16.407618 h -8.724624 v -2.00231 H 8.3011076"
     fill="none"
     stroke="#ffffff"
     stroke-linecap="round"
     stroke-linejoin="round"
     stroke-width="1"
     id="path2"
     style="stroke-width:1;stroke-dasharray:none" />
  <path
     d="m 33.790235,23.638986 4.534914,-0.0043 v 13.790262 l -4.534914,0.0043"
     fill="none"
     stroke="#ffffff"
     stroke-linecap="round"
     stroke-linejoin="round"
     stroke-width="1"
     id="path3"
     style="stroke-width:1;stroke-dasharray:none" />
  <path
     d="m 34.088357,12.271513 4.781233,5.491886 3.630446,-0.593104 -6.007875,-9.3548431 -2.403804,4.4560611"
     fill="none"
     stroke="#ffffff"
     stroke-linecap="round"
     stroke-linejoin="round"
     stroke-width="1"
     id="path4"
     style="stroke-width:1;stroke-dasharray:none" />
  <path
     d="m 38.858763,17.763399 -4.776727,3.77152"
     fill="none"
     stroke="#ffffff"
     stroke-linecap="round"
     stroke-linejoin="round"
     stroke-width="1"
     id="path5"
     style="stroke-width:1;stroke-dasharray:none" />
  <path
     d="M 28.919631,16.189783 34.088357,12.2633"
     fill="none"
     stroke="#ffffff"
     stroke-linecap="round"
     stroke-linejoin="round"
     stroke-width="1"
     id="path6"
     style="stroke-width:1;stroke-dasharray:none" />
  <path
     d="m 18.282747,30.997553 a 3.6329893,3.634219 0 1 0 7.265978,0 3.6329893,3.634219 0 1 0 -7.265978,0"
     fill="none"
     stroke="#ffffff"
     stroke-linecap="round"
     stroke-linejoin="round"
     stroke-width="1"
     id="path7"
     style="stroke-width:1;stroke-dasharray:none" />
  <path
     d="m 5.5000006,14.405308 h 2.634281 V 28.154212 H 5.5000006 V 14.405308"
     fill="none"
     stroke="#ffffff"
     stroke-linecap="round"
     stroke-linejoin="round"
     stroke-width="1"
     id="path8"
     style="stroke-width:1;stroke-dasharray:none" />
</svg>

<?xml version="1.0" encoding="UTF-8"?><svg id="b" xmlns="http://www.w3.org/2000/svg" viewBox="0 0 48 48"><defs><style>.k{fill:none;stroke:#fff;stroke-linecap:round;stroke-linejoin:round;}</style></defs><path id="c" class="k" d="m27.7626,37.2945h-13.5178v-15.7596h13.5178c1.2039,0,2.1798.9762,2.1798,2.1805v11.3985c0,1.2043-.9759,2.1805-2.1798,2.1805"/><path id="d" class="k" d="m8.1343,28.1542v12.0303h25.656v-23.7769h-8.7246v-2.0023H8.3011"/><path id="e" class="k" d="m33.7902,23.639l4.5349-.0043v13.7903l-4.5349.0043"/><path id="f" class="k" d="m34.0883,12.2715l4.7812,5.4919,3.6304-.5931-6.0079-9.3548-2.4038,4.4561"/><path id="g" class="k" d="m38.8587,17.7634l-4.7767,3.7715"/><path id="h" class="k" d="m28.9196,16.1898l5.1687-3.9265"/><path id="i" class="k" d="m18.2827,30.9976c-.0011,2.0071,1.6246,3.6351,3.6311,3.6361s3.6338-1.6252,3.6349-3.6323v-.0038c.0011-2.0071-1.6246-3.6351-3.6311-3.6361s-3.6338,1.6252-3.6349,3.6323v.0038"/><path id="j" class="k" d="m5.5,14.4053h2.6343v13.7489h-2.6343v-13.7489"/></svg>
